src/topics/icons/engine-yard.svg

<svg height="187" preserveAspectRatio="xMidYMid" viewBox="0 0 253 187" width="253" xmlns="http://www.w3.org/2000/svg"><g fill="#e92429"><path d="m157.333333 35.2h17.6l11.733334 11.7333333v-23.4666666c0-6.4-5.333334-11.7333334-11.733334-11.7333334h-1.066666c-2.666667-6.9333333-8.533334-11.7333333-16.533334-11.7333333-9.6 0-17.6 8-17.6 17.6.533334 9.6 8 17.6 17.6 17.6z"/><path d="m169.066667 139.733333h64.533333l-4.8-11.733333h-217.0666667v-11.733333h212.7999997l-4.8-11.733334h-207.4666663v-11.733333h203.2000003l-4.8-11.7333333h-23.466667v-11.7333334l11.733333-11.7333333h-35.2l11.733334 11.7333333v11.7333334h-84.266667l-4.8-11.7333334h11.7333333l-4.8-11.7333333h-93.3333333v99.2c0 16 13.3333333 29.333333 29.3333333 29.333333 13.8666667 0 26.1333334-11.733333 28.8-23.466666h1.0666667c2.6666667 11.733333 14.4 23.466666 28.8 23.466666 13.866667 0 26.133333-11.733333 28.8-23.466666h1.066667c2.666666 11.733333 14.4 23.466666 28.8 23.466666 16 0 29.333333-13.333333 29.333333-29.333333-1.066667-5.866667-3.2-11.733333-6.933333-17.066667zm-94.4000003-69.8666663 4.8 11.7333333h-27.7333334l-4.8-11.7333333zm-62.9333334 0h23.4666667l4.8 11.7333333h-28.2666667zm17.6 93.3333333h16.5333334c-2.1333334 6.933333-8.5333334 11.733333-16.5333334 11.733333-9.6 0-17.6-8-17.6-17.6s8-17.6 17.6-17.6c7.4666667 0 13.8666667 4.8 16.5333334 11.733334h-16.5333334c-3.2 0-5.8666666 2.666666-5.8666666 5.866666s2.6666666 5.866667 5.8666666 5.866667zm58.1333334 11.733333c-7.4666667 0-13.8666667-4.8-16.5333334-11.733333h33.0666667c-2.666667 6.933333-9.0666667 11.733333-16.5333333 11.733333zm-16.5333334-23.466666c2.6666667-6.933334 9.0666667-11.733334 16.5333334-11.733334 7.4666666 0 13.8666663 4.8 16.5333333 11.733334zm74.6666667 23.466666c-7.466667 0-13.866667-4.8-16.533333-11.733333h16.533333c3.2 0 5.866667-2.666667 5.866667-5.866667s-2.666667-5.866666-5.866667-5.866666h-16.533333c2.666666-6.933334 9.066666-11.733334 16.533333-11.733334 9.6 0 17.6 8 17.6 17.6s-7.466667 17.6-17.6 17.6z"/><path d="m237.866667 151.466667h-51.2v5.866666c0 11.2-4.8 21.866667-12.266667 29.333334h77.866667z"/></g></svg>

<?xml version="1.0" encoding="UTF-8" standalone="no" ?>
<svg width="253px" height="187px" viewBox="0 0 253 187" version="1.1" xmlns="http://www.w3.org/2000/svg" xmlns:xlink="http://www.w3.org/1999/xlink" preserveAspectRatio="xMidYMid">
    <g fill="#E92429">
        <path d="M157.333333,35.2 L174.933333,35.2 L186.666667,46.9333333 L186.666667,23.4666667 C186.666667,17.0666667 181.333333,11.7333333 174.933333,11.7333333 L173.866667,11.7333333 C171.2,4.8 165.333333,3.01980663e-13 157.333333,3.01980663e-13 C147.733333,3.01980663e-13 139.733333,8 139.733333,17.6 C140.266667,27.2 147.733333,35.2 157.333333,35.2 L157.333333,35.2 Z"></path>
        <path d="M169.066667,139.733333 L233.6,139.733333 L228.8,128 L11.7333333,128 L11.7333333,116.266667 L224.533333,116.266667 L219.733333,104.533333 L12.2666667,104.533333 L12.2666667,92.8 L215.466667,92.8 L210.666667,81.0666667 L187.2,81.0666667 L187.2,69.3333333 L198.933333,57.6 L163.733333,57.6 L175.466667,69.3333333 L175.466667,81.0666667 L91.2,81.0666667 L86.4,69.3333333 L98.1333333,69.3333333 L93.3333333,57.6 L0,57.6 L0,156.8 C0,172.8 13.3333333,186.133333 29.3333333,186.133333 C43.2,186.133333 55.4666667,174.4 58.1333333,162.666667 L59.2,162.666667 C61.8666667,174.4 73.6,186.133333 88,186.133333 C101.866667,186.133333 114.133333,174.4 116.8,162.666667 L117.866667,162.666667 C120.533333,174.4 132.266667,186.133333 146.666667,186.133333 C162.666667,186.133333 176,172.8 176,156.8 C174.933333,150.933333 172.8,145.066667 169.066667,139.733333 L169.066667,139.733333 Z M74.6666667,69.8666667 L79.4666667,81.6 L51.7333333,81.6 L46.9333333,69.8666667 L74.6666667,69.8666667 L74.6666667,69.8666667 Z M11.7333333,69.8666667 L35.2,69.8666667 L40,81.6 L11.7333333,81.6 L11.7333333,69.8666667 L11.7333333,69.8666667 Z M29.3333333,163.2 L45.8666667,163.2 C43.7333333,170.133333 37.3333333,174.933333 29.3333333,174.933333 C19.7333333,174.933333 11.7333333,166.933333 11.7333333,157.333333 C11.7333333,147.733333 19.7333333,139.733333 29.3333333,139.733333 C36.8,139.733333 43.2,144.533333 45.8666667,151.466667 L29.3333333,151.466667 C26.1333333,151.466667 23.4666667,154.133333 23.4666667,157.333333 C23.4666667,160.533333 26.1333333,163.2 29.3333333,163.2 L29.3333333,163.2 Z M87.4666667,174.933333 C80,174.933333 73.6,170.133333 70.9333333,163.2 L104,163.2 C101.333333,170.133333 94.9333333,174.933333 87.4666667,174.933333 L87.4666667,174.933333 Z M70.9333333,151.466667 C73.6,144.533333 80,139.733333 87.4666667,139.733333 C94.9333333,139.733333 101.333333,144.533333 104,151.466667 L70.9333333,151.466667 L70.9333333,151.466667 Z M145.6,174.933333 C138.133333,174.933333 131.733333,170.133333 129.066667,163.2 L145.6,163.2 C148.8,163.2 151.466667,160.533333 151.466667,157.333333 C151.466667,154.133333 148.8,151.466667 145.6,151.466667 L129.066667,151.466667 C131.733333,144.533333 138.133333,139.733333 145.6,139.733333 C155.2,139.733333 163.2,147.733333 163.2,157.333333 C163.2,166.933333 155.733333,174.933333 145.6,174.933333 L145.6,174.933333 Z"></path>
        <path d="M237.866667,151.466667 L186.666667,151.466667 L186.666667,157.333333 C186.666667,168.533333 181.866667,179.2 174.4,186.666667 L252.266667,186.666667 L237.866667,151.466667 L237.866667,151.466667 Z"></path>
    </g>
</svg>
